media/img/nav-bar-bg.svg

<svg width="269" height="442" viewBox="0 0 269 442" fill="none" xmlns="http://www.w3.org/2000/svg">
<path opacity="0.15" fill-rule="evenodd" clip-rule="evenodd" d="M170.658 0.288958C147.281 2.609 130.294 16.7381 120.795 41.7622C116.41 53.3127 116.336 55.9483 120.372 56.8818C121.517 57.1465 121.624 56.9695 118.83 59.4302C114.553 63.1973 110.098 68.3056 106.975 73.0228C106.053 74.4168 105.177 75.7095 105.03 75.8953C104.785 76.2039 104.769 75.6076 104.836 69.0518C104.951 57.9685 105.599 52.9452 108.338 41.9255C110.182 34.5078 111.136 31.5769 113.758 25.2871C117.215 16.9924 116.518 13.8939 110.808 12.1732C99.8525 8.87158 88.5236 18.6901 87.0984 32.722C85.3259 50.1735 88.2769 79.32 94.1722 102.59C95.8859 109.353 96.4657 110.276 99.0085 110.281C101.66 110.287 102.415 108.741 104.002 100.059C105.412 92.3396 110.484 84.2997 119.22 75.9356C122.002 73.2717 121.811 73.3626 122.36 74.4393C127.543 84.6044 139.817 92.9224 151.705 94.3259C179.343 97.5886 212.267 85.374 260.007 54.1471C265.065 50.8386 266.004 49.1147 263.968 46.8788C263.587 46.4599 263.703 46.4129 264.674 46.5932C269.381 47.4672 270.623 42.633 266.514 39.4356C231.339 12.0705 196.267 -2.25278 170.658 0.288958ZM182.134 20.0559C193.435 20.8472 203.02 23.8067 226.171 33.651C241.384 40.1201 248.411 42.757 255.246 44.562C257.254 45.0926 257.235 45.1652 255.045 45.298C243.985 45.9687 233.801 50.0863 214.826 61.5606C198.652 71.3411 194.116 73.9417 187.962 76.9624C161.187 90.1055 142.067 87.8463 130.414 70.1623C128.758 67.6492 128.658 68.0185 131.509 66.1355C139.474 60.8749 145.235 58.2864 159.458 53.5752C169.844 50.135 169.915 50.0944 169.937 47.6313C169.965 44.2742 167.241 43.3736 157.699 43.5863C147.469 43.8144 137.882 46.5229 129.299 51.6096C128.34 52.1777 127.556 52.6005 127.556 52.5493C127.556 52.3736 129.746 49.3335 131.566 46.9841C146.719 27.4192 163.055 18.7197 182.134 20.0559ZM42.2874 64.9123C15.837 68.6301 1.6797 91.2853 7.28328 120.927C9.41609 132.21 12.8658 143.402 18.8715 158.525C23.2587 169.572 24.5568 174.08 27.41 188.18C28.9807 195.942 27.9155 202.539 23.7999 210.538C21.633 214.749 16.648 220.826 3.60645 235.155C-16.9251 257.714 -28.7668 278.246 -31.2337 295.564C-33.169 309.149 -31.2579 325.003 -27.5273 326.311C-24.6394 327.324 -23.2612 325.911 -22.4133 321.07C-19.0518 301.878 -12.5888 286.505 -1.92316 272.33C5.05151 263.06 8.3961 259.336 16.1032 252.254C42.3618 228.127 48.811 218.247 49.8585 200.542C50.6268 187.552 47.8925 176.426 37.268 149.315C27.2946 123.866 25.7543 116.868 27.8388 106.476C31.0964 90.2373 46.8046 80.0623 69.9251 79.2152C75.7614 79.0013 78.0333 75.5969 74.2483 72.737C66.8976 67.1824 52.0306 63.5429 42.2874 64.9123ZM186.463 97.5885C185.532 98.0087 184.979 98.7105 184.424 100.177C177.535 118.391 172.474 128.765 163.546 142.979C145.276 172.066 141.974 194.404 152.158 220.032C158.614 236.279 164.964 244.399 192.398 271.485C221.953 300.667 230.228 314.942 231.622 339.16C234.258 384.91 193.277 410.178 148.087 390.666C143.785 388.808 141.219 389.797 141.366 393.256C141.428 394.71 141.502 394.826 144.288 397.876C177.131 433.825 235.36 417.355 247.849 368.584C255.944 336.97 250.282 310.176 230.121 284.693C224.916 278.113 220.45 273.211 209.007 261.513C199.094 251.379 191.764 243.661 187.732 239.109C165.009 213.458 159.643 194.615 167.95 169.649C169.905 163.771 171.893 159.158 177.803 146.781C185.749 130.14 188.857 121.754 190.457 112.648C191.458 106.953 191.812 100.426 191.187 99.2135C190.297 97.4867 188.249 96.7823 186.463 97.5885ZM154.39 262.083C151.481 262.885 137.744 277.218 135.508 281.785C133.97 284.925 134.643 286.032 142.093 292.615C149.368 299.044 150.23 299.485 153.291 298.346C156.473 297.163 156.978 295.615 156.544 288.362C156.165 282.017 156.15 282.151 158.069 273.818C159.045 269.576 159.689 266.415 159.687 265.876C159.676 263.252 157.027 261.355 154.39 262.083ZM68.2785 267.782C63.7471 269.088 63.8915 271.154 69.2334 281.454C74.2978 291.22 74.2094 291.006 75.7194 297.169C77.5676 304.713 78.4391 305.875 82.2437 305.869C85.3949 305.864 85.7382 305.526 90.668 297.592C97.2354 287.021 97.2688 287.236 87.8545 279.42C82.4501 274.933 72.7495 268.312 70.7868 267.77C70.0502 267.567 69.0095 267.572 68.2785 267.782ZM125.593 318.82C123.081 319.38 122.534 321.233 123.637 325.443C135.171 369.485 121.197 403.488 86.7494 415.195C43.4216 429.919 1.57905 407.92 -19.2453 359.467C-20.5034 356.54 -21.2207 355.887 -23.1729 355.892C-26.2758 355.901 -27.0616 357.719 -26.2375 362.985C-17.0527 421.685 36.4952 454.823 93.8905 437.328C141.491 422.817 154.656 382.615 131.017 323.956C129.099 319.197 128.108 318.258 125.593 318.82Z" fill="#272727"/>
</svg>

<svg width="269" height="442" viewBox="0 0 269 442" fill="none" xmlns="http://www.w3.org/2000/svg"><path opacity=".15" fill-rule="evenodd" clip-rule="evenodd" d="M170.658.289c-23.377 2.32-40.364 16.45-49.863 41.473-4.385 11.55-4.459 14.186-.423 15.12 1.145.265 1.252.087-1.542 2.548-4.277 3.767-8.732 8.876-11.855 13.593-.922 1.394-1.798 2.687-1.945 2.872-.245.309-.261-.287-.194-6.843.115-11.084.763-16.107 3.502-27.127 1.844-7.417 2.798-10.348 5.42-16.638 3.457-8.295 2.76-11.393-2.95-13.114-10.956-3.301-22.284 6.517-23.71 20.549-1.772 17.451 1.179 46.598 7.074 69.868 1.714 6.763 2.294 7.686 4.837 7.691 2.651.006 3.406-1.54 4.993-10.222 1.41-7.72 6.482-15.76 15.218-24.123 2.782-2.664 2.591-2.573 3.14-1.497 5.183 10.165 17.457 18.483 29.345 19.887 27.638 3.263 60.562-8.952 108.302-40.179 5.058-3.308 5.997-5.032 3.961-7.268-.381-.42-.265-.466.706-.286 4.707.874 5.949-3.96 1.84-7.157C231.339 12.07 196.267-2.253 170.658.289zm11.476 19.767c11.301.791 20.886 3.75 44.037 13.595 15.213 6.47 22.24 9.106 29.075 10.911 2.008.53 1.989.603-.201.736-11.06.67-21.244 4.788-40.219 16.263-16.174 9.78-20.71 12.38-26.864 15.401-26.775 13.144-45.895 10.884-57.548-6.8-1.656-2.513-1.756-2.144 1.095-4.027 7.965-5.26 13.726-7.849 27.949-12.56 10.386-3.44 10.457-3.48 10.479-5.944.028-3.357-2.696-4.257-12.238-4.045-10.23.228-19.817 2.937-28.4 8.024-.959.568-1.743.99-1.743.94 0-.176 2.19-3.216 4.01-5.566 15.153-19.565 31.489-28.264 50.568-26.928zM42.287 64.912C15.837 68.63 1.68 91.285 7.283 120.927c2.133 11.283 5.583 22.475 11.588 37.598 4.388 11.047 5.686 15.555 8.539 29.655 1.57 7.762.506 14.359-3.61 22.358-2.167 4.211-7.152 10.288-20.194 24.617-20.531 22.559-32.373 43.091-34.84 60.409-1.935 13.585-.024 29.439 3.707 30.747 2.888 1.013 4.266-.4 5.114-5.241 3.361-19.192 9.824-34.565 20.49-48.74 6.975-9.27 10.32-12.994 18.026-20.076 26.259-24.127 32.708-34.007 33.755-51.712.769-12.99-1.965-24.116-12.59-51.227-9.973-25.449-11.514-32.447-9.43-42.839 3.258-16.239 18.967-26.414 42.087-27.26 5.836-.215 8.108-3.62 4.323-6.479-7.35-5.555-22.217-9.194-31.96-7.825zm144.176 32.676c-.931.42-1.484 1.123-2.039 2.589-6.889 18.214-11.95 28.588-20.878 42.802-18.27 29.087-21.572 51.425-11.388 77.053 6.456 16.247 12.806 24.367 40.24 51.453 29.555 29.182 37.83 43.457 39.224 67.675 2.636 45.75-38.345 71.018-83.535 51.506-4.302-1.858-6.868-.869-6.721 2.59.062 1.454.136 1.57 2.922 4.62 32.843 35.949 91.072 19.479 103.561-29.292 8.095-31.614 2.433-58.408-17.728-83.891-5.205-6.58-9.671-11.482-21.114-23.18-9.913-10.134-17.243-17.852-21.275-22.404-22.723-25.651-28.089-44.494-19.782-69.46 1.955-5.878 3.943-10.491 9.853-22.868 7.946-16.641 11.054-25.027 12.654-34.133 1.001-5.695 1.355-12.222.73-13.434-.89-1.727-2.938-2.432-4.724-1.626zM154.39 262.084c-2.909.802-16.646 15.135-18.882 19.702-1.538 3.14-.865 4.247 6.585 10.83 7.275 6.429 8.137 6.87 11.198 5.731 3.182-1.183 3.687-2.731 3.253-9.984-.379-6.345-.394-6.211 1.525-14.544.976-4.242 1.62-7.403 1.618-7.942-.011-2.624-2.66-4.521-5.297-3.793zm-86.111 5.699c-4.532 1.306-4.387 3.372.954 13.672 5.065 9.766 4.976 9.552 6.486 15.715 1.849 7.544 2.72 8.706 6.525 8.7 3.15-.005 3.494-.343 8.424-8.277 6.567-10.571 6.6-10.356-2.814-18.172-5.404-4.487-15.105-11.108-17.067-11.65-.737-.203-1.778-.198-2.509.012zm57.314 51.038c-2.512.56-3.059 2.413-1.956 6.623 11.534 44.042-2.44 78.045-36.888 89.752-43.327 14.724-85.17-7.275-105.994-55.728-1.258-2.927-1.976-3.58-3.928-3.575-3.103.009-3.889 1.827-3.065 7.093 9.185 58.7 62.733 91.838 120.129 74.343 47.6-14.511 60.765-54.713 37.126-113.372-1.918-4.759-2.909-5.698-5.424-5.136z" fill="#272727"/></svg>
